src/topics/icons/rabbitmq.svg

<svg height="271" preserveAspectRatio="xMidYMid" viewBox="0 0 256 271" width="256" xmlns="http://www.w3.org/2000/svg"><path d="m245.44 108.307692h-85.090462c-4.268307 0-7.734153-3.465846-7.734153-7.734154v-88.6793842c0-6.56738457-5.32677-11.8941538-11.889231-11.8941538h-30.375385c-6.567384 0-11.8892305 5.32676923-11.8892305 11.8941538v88.1427692c0 4.573539-3.6972308 8.290462-8.2707693 8.310154l-27.8843077.132923c-4.612923.024615-8.3593846-3.716923-8.3495384-8.324923l.1723077-88.2412308c.0147692-6.57723082-5.312-11.9138462-11.8892308-11.9138462h-30.3507692c-6.56738465 0-11.8892308 5.32676923-11.8892308 11.8941538v248.3150772c0 5.833846 4.72615385 10.56 10.5550769 10.56h234.8849231c5.833846 0 10.56-4.726154 10.56-10.56v-141.341539c0-5.833846-4.726154-10.56-10.56-10.56zm-39.901538 93.233231c0 7.645539-6.198154 13.843692-13.843693 13.843692h-24.004923c-7.645538 0-13.843692-6.198153-13.843692-13.843692v-24.004923c0-7.645538 6.198154-13.843692 13.843692-13.843692h24.004923c7.645539 0 13.843693 6.198154 13.843693 13.843692z" fill="#f60"/></svg>

<?xml version="1.0" encoding="UTF-8" standalone="no"?>
<svg width="256px" height="271px" viewBox="0 0 256 271" version="1.1" xmlns="http://www.w3.org/2000/svg" xmlns:xlink="http://www.w3.org/1999/xlink" preserveAspectRatio="xMidYMid">
    <g>
        <path d="M245.44,108.307692 L160.349538,108.307692 C156.081231,108.307692 152.615385,104.841846 152.615385,100.573538 L152.615385,11.8941538 C152.615385,5.32676923 147.288615,0 140.726154,0 L110.350769,0 C103.783385,0 98.4615385,5.32676923 98.4615385,11.8941538 L98.4615385,100.036923 C98.4615385,104.610462 94.7643077,108.327385 90.1907692,108.347077 L62.3064615,108.48 C57.6935385,108.504615 53.9470769,104.763077 53.9569231,100.155077 L54.1292308,11.9138462 C54.144,5.33661538 48.8172308,0 42.24,0 L11.8892308,0 C5.32184615,0 0,5.32676923 0,11.8941538 L0,260.209231 C0,266.043077 4.72615385,270.769231 10.5550769,270.769231 L245.44,270.769231 C251.273846,270.769231 256,266.043077 256,260.209231 L256,118.867692 C256,113.033846 251.273846,108.307692 245.44,108.307692 L245.44,108.307692 Z M205.538462,201.540923 C205.538462,209.186462 199.340308,215.384615 191.694769,215.384615 L167.689846,215.384615 C160.044308,215.384615 153.846154,209.186462 153.846154,201.540923 L153.846154,177.536 C153.846154,169.890462 160.044308,163.692308 167.689846,163.692308 L191.694769,163.692308 C199.340308,163.692308 205.538462,169.890462 205.538462,177.536 L205.538462,201.540923 L205.538462,201.540923 Z" fill="#FF6600"></path>
    </g>
</svg>
